X:1     %Music
T:Bill Bones' Hornpipe
B:Singing Together, Autumn 1984, BBC Publications
F:http://www.folkinfo.org/songs
M:4/4     %Meter
L:1/8     %
K:F
FG |A2 F2 F2 GA |B2 G2 G2 cB |A2 F2 F2 EF | (GF)(ED) C2
w:On a har-bour wall, in a sail-or hat, Is an old, old man with an old_ grey_ cat; 
 FG |A2 F2 F2 GA |B2 G2 G2 cB |A2 F2 G2 E2 | F2 F2 F2
w:And he dreams all day of the time he twirled In a sail-or's horn-pipe round the world.
 AB |cc c2 c2 _e2 |d2 B2 B2 Bc |d2 d2 d2 f2 | e2 c2 c2 
w: It was ma-ny a wea-ry year a-go When he start-ed off on nim-ble toe 
FG |A2 F2 F2 GA |B2 G2 G2 cB |A2 F2 G2 E2 | F6  |]
w:For to win the prize of a sil-ver pound, He must dance the world a-round. 